svgs/sharp-solid/inboxes.svg

<svg xmlns="http://www.w3.org/2000/svg" viewBox="0 0 512 512"><!--! Font Awesome Pro 6.6.0 by @fontawesome - https://fontawesome.com License - https://fontawesome.com/license (Commercial License) Copyright 2024 Fonticons, Inc. --><path d="M74.3 0L96 0 416 0l21.7 0 8 20.1 64 160 2.3 5.7 0 6.2 0 96 0 32-32 0L32 320 0 320l0-32 0-96 0-6.2 2.3-5.7 64-160L74.3 0zm43.3 64L79.3 160l64.7 0 32 64 160 0 32-64 64.7 0L394.3 64 117.7 64zM0 352l144 0 32 64 160 0 32-64 144 0 0 160L0 512 0 352z"/></svg>

<svg xmlns="http://www.w3.org/2000/svg" viewBox="0 0 512 512"><!--! Font Awesome Pro 6.4.2 by @fontawesome - https://fontawesome.com License - https://fontawesome.com/license (Commercial License) Copyright 2023 Fonticons, Inc. --><path d="M74.3 0H96 416h21.7l8 20.1 64 160 2.3 5.7V192v96 32H480 32 0V288 192v-6.2l2.3-5.7 64-160L74.3 0zm43.3 64L79.3 160H144l32 64H336l32-64h64.7L394.3 64H117.7zM0 352H144l32 64H336l32-64H512V512H0V352z"/></svg>
